X: 1
T: Polska till Matt
T: in memory of Matt Fichtenbaum
C: Bruce Sagan (May 2022)
R: polska
S: Email message from Bruce 2022-5-22
Z: 2022 John Chambers <jc:trillian.mit.edu>
M: 3/4
L: 1/16
K: G
D2 |:\
"G"G3A B2d2 "D"c2A2 | "G"B3G GAGF "C(Em)"E4 | "C"c3B A2G2 "(Em)"E2G2 |1,3 "D"A3G FGFE D2EF :||2,4 "D"FGAF "G"G6 :|
|: GA |\
"G"B2G2 DGBG DGBG | "D"A2F2 DFAF DFAF | "Em"G2E2 B,EGE B,EGE | "Bm"F3E DED^C D2D2 |
"C"E2C2 G,CEG F2E2 | "G"D2B,2 G,B,DA B2d2 | "C"c3B A2G2 "Em"E2G2 |"D"FGAF "G"G6 :|
%%text The chords in (parens) might be played in the repeats (times 2,4).
